X: 160
T: How Paddy Was Fooled
N:"Playfully" "collected by F. O'Neill"
B:O'Neill's 160
Z:Transcribed by henrik.norbeck@mailbox.swipnet.se
M:3/4
L:1/8
K:G
d2|g2 d2 B2|G2 A2 B2|c2 a2 g2|f2 d2 ef|
g2 d2 B2|c2 d2 e2|d2 c2 B2|A4 g2|
g2 d2 B2|G2 A2 B2|c2 a2 g2|f2 d2 ef|
g2 d2 B2|c2 d2 e2|d2 g2 f2|g4||
(ga)|b2 g2 b2|a2 f2 a2|g2 e2 g2|f2 d2 (ga)|
b2 g2 b2|a2 f2 d2|g2 f2 e2|d4 (ef)|
g2 d2 B2|G2 A2 B2|c2 a2 g2|f2 d2 ef|
g2 d2 B2|c2 d2 e2|d2 g2 f2|g4||


